X:33
T:Collins Complaint. TBe.033
M:3/4
L:1/4
Q:1/4=100
S:Thomas Bennet MS,1718, VWML
R:.Air
O:England
N:Illegible comment in pencil after tune, (in FK hand?)….
H:1718
Z:vmp.C. Graebe..
K:F major
A | d^cd | fed | e2 A | fea | f>ed | d3 ||!
g | aad | ba(g/f/) | g2 a/g/ | f>ef | dgf | e2 “^sic”AA |]

